frontend/src/assets/logos/razorpay.svg

<svg width="847" height="180" viewBox="0 0 847 180" fill="none" xmlns="http://www.w3.org/2000/svg" xmlns:xlink="http://www.w3.org/1999/xlink">
 <path d="M223.833 67.1063C226.646 56.5688 225.484 48.5063 220.345 42.9188C215.207 37.3313 206.224 34.5188 193.398 34.4813H144.247L114.617 145.65H138.414L150.397 100.65H166.112C168.987 100.506 171.852 101.093 174.438 102.356C175.488 103.013 176.363 103.913 176.99 104.981C177.617 106.048 177.977 107.251 178.039 108.488L182.333 145.65H207.837L203.674 111.131C202.849 103.425 199.305 98.8876 193.154 97.5189C200.596 95.4659 207.387 91.5412 212.882 86.1189C218.191 80.893 221.977 74.3204 223.833 67.1063ZM201.049 67.5001C200.023 72.0579 197.231 76.0227 193.285 78.5251C189.534 80.8876 184.059 82.0501 177.101 82.0501H155.011L162.774 53.0063H184.884C191.822 53.0063 196.586 54.1876 199.211 56.5313C201.836 58.8751 202.399 62.5876 201.049 67.5001Z" fill="#0C2651">
 </path>
 <path d="M292.544 66.1875L289.524 77.4375C288.266 73.4169 285.604 69.9828 282.023 67.7625C277.847 65.2563 273.032 64.0185 268.165 64.2C261.337 64.2018 254.627 65.9856 248.7 69.375C242.248 73.0744 236.676 78.1279 232.366 84.1875C227.616 90.7391 224.137 98.1228 222.108 105.956C219.98 112.928 219.53 120.303 220.795 127.481C221.761 133.151 224.795 138.261 229.309 141.825C234.216 145.333 240.161 147.09 246.187 146.813C251.568 146.825 256.888 145.673 261.782 143.437C266.676 141.2 271.028 137.932 274.541 133.856L271.428 145.594H294.625L315.778 66.1875H292.544ZM282.005 105.563C280.57 112.028 277.377 117.972 272.778 122.738C270.798 124.676 268.451 126.201 265.876 127.225C263.3 128.248 260.547 128.75 257.776 128.7C251.869 128.7 247.893 126.825 245.755 122.831C243.618 118.838 243.561 113.269 245.512 105.956C246.995 99.433 250.238 93.441 254.888 88.6313C256.875 86.6345 259.24 85.0539 261.845 83.9819C264.45 82.9098 267.242 82.3678 270.059 82.3875C275.835 82.3875 279.773 84.3938 281.798 88.3875C283.824 92.3813 284.03 98.025 282.042 105.544L282.005 105.563Z" fill="#0C2651">
 </path>
 <path d="M398.534 66.2437H331.718L326.786 84.7687H365.679L314.54 129.375L310.171 145.744H379.181L384.113 127.219H342.388L394.371 81.9749L398.534 66.2437Z" fill="#0C2651">
 </path>
 <path d="M471.614 69.1501C465.409 65.605 458.332 63.8766 451.192 64.1626C443.138 64.0929 435.167 65.7956 427.845 69.1501C420.723 72.4705 414.465 77.3925 409.561 83.5314C404.438 89.9708 400.738 97.4217 398.703 105.394C396.514 112.484 396.243 120.027 397.915 127.256C399.45 133.257 403.264 138.423 408.548 141.656C413.924 144.969 420.8 146.625 429.176 146.625C437.144 146.695 445.028 144.998 452.261 141.656C459.361 138.335 465.589 133.405 470.451 127.256C475.584 120.821 479.291 113.369 481.328 105.394C483.521 98.3039 483.786 90.7579 482.097 83.5314C480.62 77.5504 476.856 72.387 471.614 69.1501ZM458.074 105.356C455.993 113.156 452.936 119.006 448.81 122.869C444.829 126.661 439.512 128.73 434.014 128.625C421.888 128.625 417.893 120.869 422.031 105.356C424.069 97.6564 427.195 91.8501 431.408 87.9376C435.44 84.0812 440.831 81.9721 446.41 82.0689C452.186 82.0689 456.124 83.9439 458.149 87.9376C460.175 91.9314 460.118 97.6501 458.074 105.356Z" fill="#0C2651">
 </path>
 <path d="M724.213 66.1875L721.194 77.4375C719.936 73.4169 717.274 69.9828 713.693 67.7625C709.524 65.2336 704.708 63.9759 699.835 64.1438C692.995 64.1586 686.278 65.962 680.351 69.375C673.894 73.0736 668.315 78.1271 663.998 84.1875C659.256 90.7434 655.777 98.1257 653.74 105.956C651.631 112.931 651.181 120.302 652.428 127.481C653.394 133.151 656.427 138.261 660.942 141.825C665.913 145.362 671.932 147.119 678.025 146.813C683.286 146.793 688.483 145.655 693.271 143.475C698.212 141.258 702.599 137.973 706.117 133.856L703.004 145.594H726.201L747.373 66.1875H724.213ZM713.618 105.563C712.19 112.026 709.004 117.97 704.41 122.738C702.426 124.67 700.079 126.191 697.504 127.215C694.93 128.238 692.178 128.743 689.408 128.7C683.482 128.7 679.507 126.825 677.369 122.831C675.231 118.838 675.194 113.269 677.125 105.956C678.616 99.4361 681.858 93.4461 686.502 88.6313C688.493 86.6357 690.862 85.056 693.469 83.9841C696.077 82.9122 698.872 82.3695 701.691 82.3875C707.467 82.3875 711.38 84.3875 713.431 88.3875C715.606 92.2688 715.662 98.025 713.618 105.544V105.563Z" fill="#0C2651">
 </path>
 <path d="M554.182 87.5628L560.108 65.9441C557.609 64.8129 554.88 64.28 552.138 64.3878C546.778 64.3939 541.509 65.7755 536.836 68.4003C532.574 70.7348 528.875 73.973 525.997 77.8878L529.053 66.2441H505.875L484.534 145.65H508.05L519.096 104.194C520.39 98.6623 523.419 93.6891 527.741 90.0003C532.185 86.5295 537.707 84.7309 543.343 84.9191C547.118 84.9033 550.839 85.8109 554.182 87.5628Z" fill="#0C2651">
 </path>
 <path d="M636.132 69.5437C631.334 65.8774 625.4 64.0126 619.367 64.275C613.497 64.2816 607.712 65.6825 602.49 68.3625C597.257 70.9353 592.746 74.7691 589.363 79.5187L589.457 78.975L593.413 66.2437H570.348L564.459 88.3125C564.459 88.5562 564.328 88.8187 564.272 89.0625L540.081 180H563.709L575.917 134.175C577.084 138.218 579.773 141.652 583.418 143.756C587.649 146.186 592.476 147.382 597.352 147.206C604.201 147.225 610.946 145.523 616.967 142.256C623.375 138.725 628.906 133.797 633.151 127.837C637.82 121.319 641.235 113.987 643.221 106.219C645.364 99.143 645.852 91.6692 644.646 84.375C643.659 78.5774 640.641 73.3201 636.132 69.5437ZM619.424 105.844C617.982 112.207 614.809 118.047 610.253 122.719C606.222 126.574 600.829 128.677 595.251 128.569C589.438 128.569 585.5 126.562 583.418 122.606C581.337 118.65 581.224 112.95 583.268 105.431C584.729 98.9159 587.976 92.9362 592.645 88.1625C594.628 86.2258 596.974 84.699 599.548 83.6695C602.123 82.64 604.875 82.1279 607.647 82.1625C613.273 82.1625 617.192 84.2625 619.236 88.4062C621.28 92.55 621.411 98.4187 619.424 105.844Z" fill="#0C2651">
 </path>
 <path d="M846.013 63.5999H821.634L817.884 71.4374C817.584 71.8311 817.302 72.2249 816.965 72.7124L816.571 73.3499L786.566 115.312L780.341 66.2436H755.737L768.245 141.506L740.585 180H764.269L771.114 170.231C771.321 169.931 771.527 169.687 771.714 169.369L779.722 157.95L779.984 157.65L815.746 106.631L846.013 63.5999Z" fill="#0C2651">
 </path>
 <path d="M54.3828 47.1751L47.2567 73.1251L87.4627 47.0438L61.2088 145.65H87.8565L126.656 6.10352e-05L54.3828 47.1751Z" fill="#3395FF">
 </path>
 <path d="M11.0641 104.175L0 145.65H54.6643L77.0364 61.2748L11.0641 104.175Z" fill="#0C2651">
 </path>
</svg>

<svg width="847" height="180" fill="none" xmlns="http://www.w3.org/2000/svg"><path d="M223.833 67.106c2.813-10.537 1.651-18.6-3.488-24.187-5.138-5.588-14.121-8.4-26.947-8.438h-49.151l-29.63 111.169h23.797l11.983-45h15.715c2.875-.144 5.74.443 8.326 1.706a7.686 7.686 0 013.601 6.132l4.294 37.162h25.504l-4.163-34.519c-.825-7.706-4.369-12.243-10.52-13.612a45.2 45.2 0 0019.728-11.4 41.02 41.02 0 0010.951-19.013zm-22.784.394a17.643 17.643 0 01-7.764 11.025c-3.751 2.363-9.226 3.525-16.184 3.525h-22.09l7.763-29.044h22.11c6.938 0 11.702 1.182 14.327 3.525 2.625 2.344 3.188 6.057 1.838 10.97zM292.544 66.188l-3.02 11.25a17.55 17.55 0 00-7.501-9.675 25.112 25.112 0 00-13.858-3.563 39.233 39.233 0 00-19.465 5.175 51.447 51.447 0 00-16.334 14.813 64.743 64.743 0 00-10.258 21.768 46.24 46.24 0 00-1.313 21.525c.966 5.67 4 10.78 8.514 14.344a26.9 26.9 0 0016.878 4.988 37.328 37.328 0 0028.354-12.957l-3.113 11.738h23.197l21.153-79.406h-23.234zm-10.539 39.375a35.955 35.955 0 01-9.227 17.175 20.918 20.918 0 01-15.002 5.962c-5.907 0-9.883-1.875-12.021-5.869-2.137-3.993-2.194-9.562-.243-16.875a36.599 36.599 0 019.376-17.325 21.191 21.191 0 0115.171-6.243c5.776 0 9.714 2.006 11.739 6 2.026 3.993 2.232 9.637.244 17.156l-.037.019zM398.534 66.244h-66.816l-4.932 18.525h38.893l-51.139 44.606-4.369 16.369h69.01l4.932-18.525h-41.725l51.983-45.244 4.163-15.731zM471.614 69.15a38.094 38.094 0 00-20.422-4.987 54.914 54.914 0 00-23.347 4.987 50.964 50.964 0 00-18.284 14.381 58.26 58.26 0 00-10.858 21.863 42.014 42.014 0 00-.788 21.862 23.793 23.793 0 0010.633 14.4c5.376 3.313 12.252 4.969 20.628 4.969a53.908 53.908 0 0023.085-4.969 50.424 50.424 0 0018.19-14.4 58.127 58.127 0 0010.877-21.862 41.796 41.796 0 00.769-21.863 23.534 23.534 0 00-10.483-14.38zm-13.54 36.206c-2.081 7.8-5.138 13.65-9.264 17.513a20.875 20.875 0 01-14.796 5.756c-12.126 0-16.121-7.756-11.983-23.269 2.038-7.7 5.164-13.506 9.377-17.418a21.172 21.172 0 0115.002-5.87c5.776 0 9.714 1.876 11.739 5.87 2.026 3.993 1.969 9.712-.075 17.418zM724.213 66.188l-3.019 11.25a17.55 17.55 0 00-7.501-9.675 25.056 25.056 0 00-13.858-3.62 39.215 39.215 0 00-19.484 5.232 51.514 51.514 0 00-16.353 14.813 65.116 65.116 0 00-10.258 21.768 46.736 46.736 0 00-1.312 21.525 23.248 23.248 0 008.514 14.344 27.12 27.12 0 0017.083 4.988 37.134 37.134 0 0015.246-3.338 36.61 36.61 0 0012.846-9.619l-3.113 11.738h23.197l21.172-79.406h-23.16zm-10.595 39.375a35.923 35.923 0 01-9.208 17.175 21.044 21.044 0 01-15.002 5.962c-5.926 0-9.901-1.875-12.039-5.869-2.138-3.993-2.175-9.562-.244-16.875a36.76 36.76 0 019.377-17.325 21.265 21.265 0 0115.189-6.243c5.776 0 9.689 2 11.74 6 2.175 3.88 2.231 9.637.187 17.156v.019zM554.182 87.563l5.926-21.619a17.646 17.646 0 00-7.97-1.556 31.32 31.32 0 00-15.302 4.012 33.32 33.32 0 00-10.839 9.488l3.056-11.644h-23.178l-21.341 79.406h23.516l11.046-41.456A26.637 26.637 0 01527.741 90a24.043 24.043 0 0115.602-5.08 23.142 23.142 0 0110.839 2.643zM636.132 69.544a25.769 25.769 0 00-16.765-5.269 37.055 37.055 0 00-16.877 4.087 35.165 35.165 0 00-13.127 11.157l.094-.544 3.956-12.731h-23.065l-5.889 22.069c0 .243-.131.506-.187.75L540.081 180h23.628l12.208-45.825a16.275 16.275 0 007.501 9.581 26.088 26.088 0 0013.934 3.45 40.892 40.892 0 0019.615-4.95 48.76 48.76 0 0016.184-14.419 64.605 64.605 0 0010.07-21.618 48.223 48.223 0 001.425-21.844 24.768 24.768 0 00-8.514-14.831zm-16.708 36.3a35.364 35.364 0 01-9.171 16.875 21.113 21.113 0 01-15.002 5.85c-5.813 0-9.751-2.007-11.833-5.963-2.081-3.956-2.194-9.656-.15-17.175a35.946 35.946 0 019.377-17.269 21.088 21.088 0 0115.002-6c5.626 0 9.545 2.1 11.589 6.244 2.044 4.144 2.175 10.013.188 17.438zM846.013 63.6h-24.379l-3.75 7.837c-.3.394-.582.788-.919 1.275l-.394.638-30.005 41.962-6.225-49.068h-24.604l12.508 75.262L740.585 180h23.684l6.845-9.769c.207-.3.413-.544.6-.862l8.008-11.419.262-.3 35.762-51.019L846.013 63.6z" fill="#0C2651"/><path d="M54.383 47.175l-7.126 25.95 40.206-26.081-26.254 98.606h26.647L126.656 0 54.383 47.175z" fill="#3395FF"/><path d="M11.064 104.175L0 145.65h54.664l22.372-84.375-65.972 42.9z" fill="#0C2651"/></svg>
